fs/app_folder_16_regular.svg

<svg viewBox="0 0 16 16" fill="none" xmlns="http://www.w3.org/2000/svg" height="1em" width="1em">
  <path d="M4 5C4 4.44772 4.44772 4 5 4H6.5C7.05228 4 7.5 4.44772 7.5 5V6.5C7.5 7.05228 7.05228 7.5 6.5 7.5H5C4.44772 7.5 4 7.05228 4 6.5V5ZM6.5 5H5V6.5H6.5V5ZM5 8.5C4.44772 8.5 4 8.94772 4 9.5V11C4 11.5523 4.44772 12 5 12H6.5C7.05228 12 7.5 11.5523 7.5 11V9.5C7.5 8.94772 7.05228 8.5 6.5 8.5H5ZM5 9.5H6.5V11H5V9.5ZM8.5 5C8.5 4.44772 8.94772 4 9.5 4H11C11.5523 4 12 4.44772 12 5V6.5C12 7.05228 11.5523 7.5 11 7.5H9.5C8.94772 7.5 8.5 7.05228 8.5 6.5V5ZM11 5H9.5V6.5H11V5ZM9.5 8.5C8.94772 8.5 8.5 8.94772 8.5 9.5V11C8.5 11.5523 8.94772 12 9.5 12H11C11.5523 12 12 11.5523 12 11V9.5C12 8.94772 11.5523 8.5 11 8.5H9.5ZM9.5 9.5H11V11H9.5V9.5ZM2 4.5C2 3.11929 3.11929 2 4.5 2H11.5C12.8807 2 14 3.11929 14 4.5V11.5C14 12.8807 12.8807 14 11.5 14H4.5C3.11929 14 2 12.8807 2 11.5V4.5ZM4.5 3C3.67157 3 3 3.67157 3 4.5V11.5C3 12.3284 3.67157 13 4.5 13H11.5C12.3284 13 13 12.3284 13 11.5V4.5C13 3.67157 12.3284 3 11.5 3H4.5Z" fill="#212121"/>
</svg>

<svg viewBox="0 0 16 16" fill="none" xmlns="http://www.w3.org/2000/svg" height="1em" width="1em">
  <path d="M4 5a1 1 0 0 1 1-1h1.5a1 1 0 0 1 1 1v1.5a1 1 0 0 1-1 1H5a1 1 0 0 1-1-1V5Zm2.5 0H5v1.5h1.5V5ZM5 8.5a1 1 0 0 0-1 1V11a1 1 0 0 0 1 1h1.5a1 1 0 0 0 1-1V9.5a1 1 0 0 0-1-1H5Zm0 1h1.5V11H5V9.5ZM8.5 5a1 1 0 0 1 1-1H11a1 1 0 0 1 1 1v1.5a1 1 0 0 1-1 1H9.5a1 1 0 0 1-1-1V5ZM11 5H9.5v1.5H11V5ZM9.5 8.5a1 1 0 0 0-1 1V11a1 1 0 0 0 1 1H11a1 1 0 0 0 1-1V9.5a1 1 0 0 0-1-1H9.5Zm0 1H11V11H9.5V9.5ZM2 4.5A2.5 2.5 0 0 1 4.5 2h7A2.5 2.5 0 0 1 14 4.5v7a2.5 2.5 0 0 1-2.5 2.5h-7A2.5 2.5 0 0 1 2 11.5v-7ZM4.5 3A1.5 1.5 0 0 0 3 4.5v7A1.5 1.5 0 0 0 4.5 13h7a1.5 1.5 0 0 0 1.5-1.5v-7A1.5 1.5 0 0 0 11.5 3h-7Z" fill="#212121"/>
</svg>
